X: 118
T: Captain Drivers Delight
N: Pub: J. Walsh, London, 1748
Z: 2012 John Chambers <jc:trillian.mit.edu>
S: 2: CCD2  http://petrucci.mus.auth.gr/imglnks/usimg/6/61/IMSLP173105-PMLP149069-caledoniancountr00ingl.pdf p.57 #317
S: 4: ACMV  http://archive.org/details/acompositemusicv01rugg p.4:57 #317
M: C
L: 1/8
K: A
% - - - - - - - - - - - - - - - - - - - - - - - - -
V: 1
|: e2cd e3f  | edcB c2BA | e2cd e2a2 | e2dc B4 :|
|: BAGA Bcdf | edcB c2BA | a2ec f2dB | ecdB A4 :|
% - - - - - - - - - - - - - - - - - - - - - - - - -
V: 2 clef=bass middle=d
|: a2a2 a2d2 | e2e2 a2a2 | a2a2 a2d2 | c2d2 e4 :|
|: e2e2 e2e2 | e2e2 a2a2 | c2c2 d2d2 | e2e2 a4 :|
% - - - - - - - - - - - - - - - - - - - - - - - - -
%%begintext align
%% First and 2d Men lead thro sides and turn .|
%% Their Partners do the same :|
%% First Cu. gallop down one Cu. gallop back again and cast off .|
%% First and 2d Cu. Right and Left quite round.
%%endtext

%%sep 1 1 500
%%sep 1 1 500
